img/socials-dc.svg

<svg width="28" height="28" viewBox="0 0 28 28" fill="none" xmlns="http://www.w3.org/2000/svg">
<path d="M22.0015 0.00541623C25.3146 0.00623184 28 2.69228 28 6.00542V22C28 25.3137 25.3137 28 22 28H6C2.68629 28 0 25.3137 0 22V6.00148C0 2.68719 2.68719 0.000661521 6.00148 0.00147742L22.0015 0.00541623ZM17.1101 6.30383H17.0635L16.7632 6.59531C19.8286 7.47412 21.3114 8.84384 21.3114 8.84384C19.3376 7.8675 17.5534 7.3766 15.7758 7.17717C14.4946 6.98321 13.2069 7.08622 12.1219 7.17717H11.8216C11.1289 7.17717 9.65162 7.47412 7.6712 8.25541C6.98409 8.55236 6.58623 8.74631 6.58623 8.74631C6.58623 8.74631 8.06352 7.27907 11.3306 6.49778L11.1289 6.30383C11.1289 6.30383 8.65864 6.20631 5.99222 8.15898C5.99222 8.15898 3.32579 12.7536 3.32579 18.4143C3.32579 18.4143 4.80308 20.9543 8.85591 21.0508C8.85591 21.0508 9.44992 20.275 10.045 19.5901C7.77094 18.9052 6.88214 17.5355 6.88214 17.5355C6.88214 17.5355 7.08383 17.633 7.37863 17.827H7.46507C7.51161 17.827 7.53489 17.85 7.55705 17.873V17.884C7.58033 17.907 7.6036 17.9234 7.6435 17.9234C8.13445 18.1229 8.61875 18.3168 9.01771 18.5108C9.71036 18.8022 10.5936 19.0981 11.6786 19.2931C13.0528 19.4926 14.6276 19.5846 16.423 19.2931C17.3062 19.0937 18.195 18.9052 19.0838 18.5108C19.6557 18.2193 20.365 17.9289 21.1441 17.4325C21.1441 17.4325 20.2608 18.8022 17.8881 19.4871C18.3735 20.1665 19.0595 20.9478 19.0595 20.9478C23.1167 20.8568 24.6926 18.3168 24.7791 18.4253C24.7791 12.77 22.0949 8.16994 22.0949 8.16994C19.6823 6.39478 17.4193 6.32684 17.0214 6.32684L17.1023 6.29835L17.1101 6.30383ZM17.3583 12.7536C18.3978 12.7536 19.2346 13.6269 19.2346 14.6997C19.2346 15.7845 18.3923 16.6567 17.3583 16.6567C16.3188 16.6567 15.4821 15.7834 15.4821 14.7106C15.4821 13.6258 16.3243 12.7536 17.3583 12.7536ZM10.6457 12.7536C11.6786 12.7536 12.5164 13.6269 12.5164 14.6997C12.5164 15.7845 11.6742 16.6567 10.6402 16.6567C9.60065 16.6567 8.75838 15.7834 8.75838 14.7106C8.75838 13.6258 9.60065 12.7536 10.6402 12.7536H10.6457Z" fill="#5865F2"></path>
</svg>

<svg width="28" height="28" fill="none" xmlns="http://www.w3.org/2000/svg"><path d="M22.002.005a6 6 0 0 1 5.998 6V22a6 6 0 0 1-6 6H6a6 6 0 0 1-6-6V6.001a6 6 0 0 1 6.001-6l16 .004ZM17.11 6.304h-.046l-.3.291c3.065.88 4.547 2.249 4.547 2.249-1.973-.976-3.758-1.467-5.535-1.667-1.281-.194-2.57-.09-3.654 0h-.3c-.693 0-2.17.297-4.15 1.078-.688.297-1.086.491-1.086.491s1.478-1.467 4.745-2.248l-.202-.194s-2.47-.098-5.137 1.855c0 0-2.666 4.595-2.666 10.255 0 0 1.477 2.54 5.53 2.637 0 0 .594-.776 1.189-1.46-2.274-.686-3.163-2.056-3.163-2.056s.202.098.497.292h.086c.047 0 .07.023.092.046v.011c.023.023.047.04.087.04.49.199.975.393 1.374.587.692.291 1.576.587 2.66.782 1.375.2 2.95.292 4.745 0 .883-.2 1.772-.388 2.66-.782.573-.292 1.282-.582 2.061-1.078 0 0-.883 1.37-3.256 2.054.485.68 1.171 1.46 1.171 1.46 4.058-.09 5.634-2.63 5.72-2.522 0-5.655-2.684-10.255-2.684-10.255-2.413-1.775-4.676-1.843-5.074-1.843l.081-.029.008.006Zm.248 6.45c1.04 0 1.877.873 1.877 1.946 0 1.085-.843 1.957-1.877 1.957-1.04 0-1.876-.874-1.876-1.946 0-1.085.842-1.957 1.876-1.957Zm-6.712 0c1.033 0 1.87.873 1.87 1.946 0 1.085-.842 1.957-1.876 1.957-1.04 0-1.882-.874-1.882-1.946 0-1.085.843-1.957 1.882-1.957h.006Z" fill="#5865F2"/></svg>
